src/public/svg/13d.svg

<svg xmlns="http://www.w3.org/2000/svg" style="isolation:isolate" width="512" height="512"><path d="M426.315 185.817c-11.07-83.636-64.705-144.772-149.558-144.772-71.043 0-110.37 42.814-134.614 109.263a114.564 114.564 0 00-27.15-3.238C51.532 147.071 0 202.339 0 265.771c0 60.693 49.678 104.725 110.703 108.378h13.838v-27.676h-13.838c-44.06-2.629-83.026-36.614-83.026-80.702 0-46.108 41.208-87.288 87.316-87.288 10.793 0 21.394 2.102 31.495 6.172l16.688 6.808 4.511-17.409c15.609-60.72 46.412-104.917 109.07-104.917 73.589 0 116.182 59.42 119.476 132.981l.72 15.969 19.097-1.384c35.59 0 68.303 27.565 68.303 63.1 0 35.564-33.599 66.644-69.19 66.644H373.65v27.675h41.485c52.916 0 96.865-41.458 96.865-94.319-.001-48.931-37.363-88.811-85.685-93.986zm-91.467 109.262l-13.727 8.331 1.245-14.115-21.698-2.131-2.74 30.278-37.916 22.97V294.47l23.608-17.629L271 258.16l-10.988 8.22v-16.66h-21.863v16.66l-10.959-8.22-12.648 18.708 23.635 17.629v45.969l-37.915-22.97-2.74-30.278-21.698 2.131 1.245 14.114-13.727-8.33-10.987 19.789 13.755 8.33-12.26 5.895 9.105 20.839 26.347-12.675 37.916 22.998-37.916 22.999-26.347-12.676-9.105 20.84 12.26 5.895-13.755 8.33 10.959 19.871 13.727-8.33-1.245 14.114 21.697 2.132 2.741-30.278 37.915-22.998v45.968l-23.635 17.63 12.648 18.708 10.959-8.192v16.633h21.863v-16.633l10.96 8.192 12.648-18.708-23.608-17.63v-45.968l37.916 22.998 2.74 30.278 21.697-2.132-1.244-14.114 13.727 8.33 10.904-19.871-13.727-8.303 12.26-5.895-9.105-20.84-26.375 12.676-37.915-22.999 37.915-22.998 26.375 12.675 9.105-20.839-12.288-5.896 13.755-8.33-10.876-19.869z" fill="white"/></svg>

<?xml version="1.0" standalone="no"?><!-- Generator: Gravit.io --><svg xmlns="http://www.w3.org/2000/svg" xmlns:xlink="http://www.w3.org/1999/xlink" style="isolation:isolate" viewBox="0 0 512 512" width="512" height="512"><g id="null"><g id="Cloud__x2B__Snow"><g id="null"><path d=" M 426.315 185.817 C 415.245 102.181 361.61 41.045 276.757 41.045 C 205.714 41.045 166.387 83.859 142.143 150.308 C 133.286 148.149 124.181 147.07 114.993 147.07 C 51.532 147.071 0 202.339 0 265.771 C 0 326.464 49.678 370.496 110.703 374.149 L 124.541 374.149 L 124.541 346.473 L 110.703 346.473 C 66.643 343.844 27.677 309.859 27.677 265.771 C 27.677 219.663 68.885 178.483 114.993 178.483 C 125.786 178.483 136.387 180.585 146.488 184.655 L 163.176 191.463 L 167.687 174.054 C 183.296 113.334 214.099 69.137 276.757 69.137 C 350.346 69.137 392.939 128.557 396.233 202.118 L 396.953 218.087 L 416.05 216.703 C 451.64 216.703 484.353 244.268 484.353 279.803 C 484.353 315.367 450.754 346.447 415.163 346.447 L 373.65 346.447 L 373.65 374.122 L 415.135 374.122 C 468.051 374.122 512 332.664 512 279.803 C 511.999 230.872 474.637 190.992 426.315 185.817 Z  M 334.848 295.079 L 321.121 303.41 L 322.366 289.295 L 300.668 287.164 L 297.928 317.442 L 260.012 340.412 L 260.012 294.47 L 283.62 276.841 L 271 258.16 L 260.012 266.38 L 260.012 249.72 L 238.149 249.72 L 238.149 266.38 L 227.19 258.16 L 214.542 276.868 L 238.177 294.497 L 238.177 340.466 L 200.262 317.496 L 197.522 287.218 L 175.824 289.349 L 177.069 303.463 L 163.342 295.133 L 152.355 314.922 L 166.11 323.252 L 153.85 329.147 L 162.955 349.986 L 189.302 337.311 L 227.218 360.309 L 189.302 383.308 L 162.955 370.632 L 153.85 391.472 L 166.11 397.367 L 152.355 405.697 L 163.314 425.568 L 177.041 417.238 L 175.796 431.352 L 197.493 433.484 L 200.234 403.206 L 238.149 380.208 L 238.149 426.176 L 214.514 443.806 L 227.162 462.514 L 238.121 454.322 L 238.121 470.955 L 259.984 470.955 L 259.984 454.322 L 270.944 462.514 L 283.592 443.806 L 259.984 426.176 L 259.984 380.208 L 297.9 403.206 L 300.64 433.484 L 322.337 431.352 L 321.093 417.238 L 334.82 425.568 L 345.724 405.697 L 331.997 397.394 L 344.257 391.499 L 335.152 370.659 L 308.777 383.335 L 270.862 360.336 L 308.777 337.338 L 335.152 350.013 L 344.257 329.174 L 331.969 323.278 L 345.724 314.948 L 334.848 295.079 Z " fill="rgb(0,0,0)"/></g></g></g></svg>
